X: 63
T: Dans p\aa Kolbotten
T: Dance on the Charcoal Flat
O: G\"astrikland
R: polka
S: http://www.folksweden.com/files/Dans_p__Kolbotten.pdf
Z: 2021 John Chambers <jc:trillian.mit.edu>
M: 3/4
L: 1/16
K: Gm
|:\
D3d c2B2 A2G2 | G2AB cBAG ^F2D2 | D2^FA D2FA D2FA | G2AB cBAG ^F2D2 ||\
D2^FA D2FA D2FA | G2AB cBAG ^F2D2 | D3d c2A2 B2d2 | D^FAF G4 :|
|:\
D3A, B,2C2 D4 | D3G F2E2 D4 | D3A, B,2C2 D4 | D3G F2E2 D4 ||\
D2^FA d2AF D4 | D2GB d2BG D4 | D3d c2A2 B2d2 | D^FAF G4 :|
